!!!OTL: König Balthasar (2-15) S. 51
!!!id: P0888
**kern
*clefG2
*k[f#]
*G:
{8.d
16g
=1
4.g
8f#
8g
8e
=2
2d}
=3
{4e
=4
4e
4c
4e
=5
4e
4d}
=6
{4d
=7
4.g
8f#
8g
8e
=8
2d}
=9
{4e
=10
4e
4c
4e
=11
4e
4d}
=12
{4d
=13
4g
4b
4g
=14
4a
4cc}
=15
{4a
=16
4g
8b
8a
8g
8a
=17
4.b
8a}
=18
{8g
8f#
=19
4.e
8f#
8g
8e
=20
2d}
=21
{8cc
8a
=22
4b
4b
4a
=23
4g}
4r
=24
{4d
=25
4g
4b
4g
=26
4a
4cc}
=27
{4a
=28
4g
8b
8a
8g
8a
=29
4.b
8a}
=30
{8g
8f#
=31
4.e
8f#
8g
8e
=32
2d}
=33
{8cc
8a
=34
4b
4b
4a
=35
4g}
4r
==
*-
!!!minrhy: 16
!!!meters: 3/4 ]  ZZ[12
!!!cut: König Balthasar (2-15) S. 51
!!!reg: Lothringen
!!!trd: PINCK, Louis: Verklingende Weisen, Bd 2, Metz 1928
!!!rhy1: X_.X  X__.X_X_X_  X___
!!!rhy2: X__  X__X__X__  X__X__
!!!key: P0888  16  G 3/4 ]  ZZ[12
!!!mod: HEPTATONIK IONISCH]  AMBITUS[8
!!!kad: -5-5-5-542-5142-51
!!!akz: 1-5_-6-6_1-5_-6-6_12_13_-6-5_31_12_13_-6-5_31_
!!!fot: 'a__b__av_b__aw_c__d__e__aw_c__d__e__
!!!for: 'a__b__av_b__b__c__av_bw_b__c__av_bw_
!!!fok: '^__-__^__-__/__-__Sd_\__/__-__Sd_\__
!! PHRAS[AUFTAKTIG]
!!!fkt: geistliche, religiöse Lieder
!! LOTH VKL
!! PR[12] 2K[9] 2G[21] 3K[3] 3G[3] 4A[3] 4Ü[0] 5A[3] 6K[0] 6G[0]
!! 7K[0] 7G[0] 8A[0] MEHR[0] SI[42] ABS[33] SR[30] SP[12]
!! ST[0] 2k[12] 2g[24] 3k[3] 3g[6] 4d[0] 4ü[0] 5d[0] 6k[0] 6g[0]
!! 7k[0] 7g[0] 8d[0] mehr[0] si[45] dm[-3] sr[36] sp[9]
!! 1F[3] 2F[71] 3F[15] 4F[0] LF[0] 2P[3] 3P[9] 4P[0] TRI[0] DF[5] AB[34]
!! TF[0] U3K[0] U3[0] U4[0] U4Ü[0] U5[3] U6K[0] U6[0] U7K[0] U7[3]
!! N1[24] N2K[0] N2[21] N3K[18] N3[0] N4[15] N4Ü[0] N5[18] N6K[0] N6[0]
!!!n7k: 0] N7[0] O1[0] O2K[0] O2[0] O3K[0] O3[0] HÖ[0
